svg/regular/bx-chart.svg

<svg xmlns="http://www.w3.org/2000/svg" width="24" height="24"><path d="M5 21h14c1.103 0 2-.897 2-2V5c0-1.103-.897-2-2-2H5c-1.103 0-2 .897-2 2v14c0 1.103.897 2 2 2zM5 5h14l.001 14H5V5z"/><path d="m13.553 11.658-4-2-2.448 4.895 1.79.894 1.552-3.105 4 2 2.448-4.895-1.79-.894z"/></svg>

<svg xmlns="http://www.w3.org/2000/svg" width="24" height="24" viewBox="0 0 24 24"><path d="M5,21h14c1.103,0,2-0.897,2-2V5c0-1.103-0.897-2-2-2H5C3.897,3,3,3.897,3,5v14C3,20.103,3.897,21,5,21z M5,5h14l0.001,14H5 V5z"/><path d="M13.553 11.658L9.553 9.658 7.105 14.553 8.895 15.447 10.447 12.342 14.447 14.342 16.895 9.447 15.105 8.553z"/></svg>
